korla/apps/symbolic/preferences-desktop-remote-desktop-symbolic.svg

<svg style="clip-rule:evenodd;fill-rule:evenodd;stroke-linejoin:round;stroke-miterlimit:2" version="1.1" viewBox="0 0 16 16" xmlns="http://www.w3.org/2000/svg">
 <path d="m3.5 5s-0.5 0-0.5 0.5v4c0 0.5 0.5 0.5 0.5 0.5h4c0.5 0 0.5-0.5 0.5-0.5v-4c0-0.5-0.44-0.5-0.5-0.5h-4zm0.111 1.74h3.778v2.52h-3.778v-2.52z" style="fill-rule:nonzero;fill:rgb(223,223,223)"/>
 <rect x="3" y="14.385" width="10" height="1.615" style="fill-opacity:.5;fill:rgb(223,223,223)"/>
 <path d="m2 0c-2 0-2 2-2 2v9s0 2 2 2h12s2 0 2-2v-9s0-2-2-2h-12zm-1.026 0.834h14.052v11.332h-14.052v-11.332z" style="fill:rgb(223,223,223)"/>
 <path d="m9.5 3h2c0.277 0 0.5 0.223 0.5 0.5v2c0 0.277-0.223 0.5-0.5 0.5h-2c-0.277 0-0.5-0.223-0.5-0.5v-2c0-0.277 0.223-0.5 0.5-0.5z" style="fill-rule:nonzero;fill:rgb(223,223,223)"/>
</svg>

<svg xmlns="http://www.w3.org/2000/svg" width="16" height="16" version="1.1">
 <path style="fill:#dfdfdf" d="M 3.5,5 C 3.5,5 3,5 3,5.5 V 9.5 C 3,10 3.5,10 3.5,10 H 7.5 C 8,10 8,9.5 8,9.5 V 5.5 C 8,5 7.56,5 7.5,5 Z M 4,7 H 7 V 9 H 4 Z"/>
 <path style="fill:#dfdfdf" d="M 2,0 C 0,0 0,2 0,2 V 11 C 0,11 0,13 2,13 H 14 C 14,13 16,13 16,11 V 2 C 16,2 16,0 14,0 Z M 2,2 H 14 V 11 H 2 Z M 3,15 V 16 H 13 V 15 C 13,14 12,14 12,14 H 4 C 4,14 3,14 3,15 Z"/>
 <path style="fill:#dfdfdf" d="M 9.5,3 H 11.5 C 11.777,3 12,3.223 12,3.5 V 5.5 C 12,5.777 11.777,6 11.5,6 H 9.5 C 9.223,6 9,5.777 9,5.5 V 3.5 C 9,3.223 9.223,3 9.5,3 Z"/>
</svg>
